icon-svg/oauth.svg

<svg xmlns="http://www.w3.org/2000/svg" viewBox="0 0 24 24"><path fill="#44739e" d="M21.455 8.93a10.5 10.5 0 0 0-1.15-2.426A9.38 9.38 0 0 0 12.1 2.002q-.399 0-.825.025a10.2 10.2 0 0 0-3.252.775A12 12 0 0 0 6.097 3.9a9 9 0 0 0-1.951 1.879 10 10 0 0 0-1.375 2.402l-.125.299a8 8 0 0 0-.299.825 8.8 8.8 0 0 0-.327 2.451 11.6 11.6 0 0 0 .226 2.327 9.74 9.74 0 0 0 2.051 4.277 11.5 11.5 0 0 0 3.476 2.702 8.4 8.4 0 0 0 2.739.837 10.8 10.8 0 0 0 3.114-.025 9.6 9.6 0 0 0 2.876-.891 10.1 10.1 0 0 0 3.803-3.477 9.6 9.6 0 0 0 1.197-2.501 10.3 10.3 0 0 0 .478-3.098 9.3 9.3 0 0 0-.525-2.977m-5.09 7.642a1.17 1.17 0 0 1-.712.613 1.7 1.7 0 0 1-.399.049 1.25 1.25 0 0 1-.726-.224 1.16 1.16 0 0 1-.45-.626l-.575-1.826h-3l-.575 1.826a1.23 1.23 0 0 1-.45.613 1.2 1.2 0 0 1-.725.237 1.4 1.4 0 0 1-.376-.049 1.2 1.2 0 0 1-.737-.599 1.22 1.22 0 0 1-.088-.951l2.522-8.005a1.23 1.23 0 0 1 .45-.638 1.2 1.2 0 0 1 .726-.238h1.349a1.2 1.2 0 0 1 .725.238 1.2 1.2 0 0 1 .45.613l2.651 8.004a1.18 1.18 0 0 1-.061.963Z"/></svg>

<?xml version="1.0" encoding="UTF-8"?>
<svg width="24px" fill="#44739e" height="24px" viewBox="0 0 24 24" version="1.1" xmlns="http://www.w3.org/2000/svg" xmlns:xlink="http://www.w3.org/1999/xlink">
            <path d="M 21.474,8.923 A 10.516,10.516 0 0 0 20.321,6.492 9.395,9.395 0 0 0 12.1,1.981 q -0.4,0 -0.827,0.025 A 10.167,10.167 0 0 0 8.015,2.783 12.075,12.075 0 0 0 6.085,3.883 9.036,9.036 0 0 0 4.13,5.766 10.1,10.1 0 0 0 2.752,8.172 l -0.125,0.3 A 7.91,7.91 0 0 0 2.327,9.299 8.831,8.831 0 0 0 2,11.755 a 11.566,11.566 0 0 0 0.226,2.331 9.757,9.757 0 0 0 2.055,4.286 11.474,11.474 0 0 0 3.483,2.707 8.4,8.4 0 0 0 2.745,0.839 10.844,10.844 0 0 0 3.12,-0.025 9.59,9.59 0 0 0 2.882,-0.893 10.087,10.087 0 0 0 3.81,-3.484 9.643,9.643 0 0 0 1.2,-2.506 A 10.252,10.252 0 0 0 22,11.906 9.283,9.283 0 0 0 21.474,8.923 Z m -5.1,7.657 a 1.174,1.174 0 0 1 -0.714,0.614 1.668,1.668 0 0 1 -0.4,0.05 1.253,1.253 0 0 1 -0.727,-0.225 1.164,1.164 0 0 1 -0.451,-0.627 l -0.576,-1.83 H 10.5 l -0.576,1.83 A 1.227,1.227 0 0 1 9.473,17.006 1.2,1.2 0 0 1 8.746,17.244 1.378,1.378 0 0 1 8.37,17.194 1.186,1.186 0 0 1 7.631,16.594 1.219,1.219 0 0 1 7.543,15.641 L 10.07,7.62 A 1.225,1.225 0 0 1 10.521,6.981 1.2,1.2 0 0 1 11.248,6.743 H 12.6 a 1.2,1.2 0 0 1 0.726,0.238 1.216,1.216 0 0 1 0.451,0.614 l 2.657,8.02 a 1.177,1.177 0 0 1 -0.061,0.965 z"/>

</svg>
